!!!COM: Messiaen, Olivier (Eugène Prosper Charles)
!!!OTL: Visions de l'Amen (Visions of the Amen) for Two Pianos
!!!OMV: III: Amen de l'agonie de Jésus (Amen of the Agony of Jesus)
!!!example: 738
!!!work: Mes-18
**kern	**kern	**dynam	**kern	**kern	**dynam
*part2	*part2	*part2	*part1	*part1	*part1
*staff4	*staff3	*	*staff2	*staff1	*
*I"Piano	*	*	*I"Piano	*	*
*I'Pno.	*	*	*I'Pno.	*	*
*clefF4	*clefG2	*	*clefF4	*clefG2	*
*k[]	*k[]	*	*k[]	*k[]	*
*C:	*C:	*	*C:	*C:	*
*M2/4	*M2/4	*	*M2/4	*M2/4	*
*MM121	*MM121	*	*MM121	*MM121	*
*	*	*	*	*8va	*
=63	=63	=63	=63	=63	=63
8r	8r	.	2r	16ddd#XLL 16aaa 16eeee	p
.	.	.	.	16dddn 16ggg#X 16dddd#X	.
4B-X 4cn 4en	(8an	f	.	16aa 16ddd#X 16ggg#X	.
.	.	.	.	16gg#XJJ 16dddn 16gggn	.
.	8dd-XL	.	.	16ccc#XLL 16eee 16aaa	.
.	.	.	.	16fffnJ 16bbb-X 16ddddn	.
[8B-X [8d-X [8f#X	8ccnJ	.	.	(8ddd#X^J 8aaa 8eeee	.
=64	=64	=64	=64	=64	=64
*	*	*	*8ba	*	*
16B-XKL] 16d-] 16f#]	16ee-XKL	.	8.r	8dddnL) 8ggg#X 8dddd#X	.
[8.B-XJ [8.e-X [8.g	[8.aJ	.	.	.	.
.	.	.	.	16ccc#XL 16gggn 16ddddn	.
.	.	.	[16CCC#X [16GGG#X [16DDn	16dddJJ 16ggg#X 16dddd#X	p
4B-X_ 4e-_ 4g_	4a_)	.	8.CCC#L] 8.GGG#] 8.DD]	(8aa^L 8ddd#X 8ggg#X	.
.	.	.	.	16gg#XL) 16dddn 16gggn	.
.	.	.	[16EEEnJk [16BBBn [16FFn	[16ccc#X~JJ [16eee [16aaa	.
=65	=65	=65	=65	=65	=65
16B-XKL] 16e-] 16g]	16aKL]	.	8.EEEL] 8.BBB] 8.FF]	16ccc#XLL] 16eee] 16aaa]	.
[8.GJ [8.An [8.d-X	(8f#X	.	.	16fffn 16bbb-X 16dddd	.
.	.	.	.	16ddd#X 16aaa 16eeee	.
!	!	!	!	!LO:TX:b:i:t=poco sf	!
.	[16b-XJk	.	[16AAAA^Jk	16ccc#XJJ 16gggn 16ddddn	.
16GKL] 16An] 16d-]	16b-KL]	.	8.AAAAL]	8ddd#XL 8aaa 8eeee	.
8.GJ 8.B-X 8.e-X	8a	.	.	.	.
.	.	.	.	[8ddd#XJ [8ggg#X [8dddd#X	.
.	16ccJk	.	[16CCC#XJk [16GGG#X [16DDn	.	.
=66	=66	=66	=66	=66	=66
2G 2c 2en	8f#XL)	.	16CCC#KL] 16GGG#] 16DD]	8ddd#XL] 8ggg#] 8dddd#]	.
.	.	.	8.EEEJ 8.BBB 8.FFn	.	.
.	(8cc~J	p	.	8ddd~J 8ggg 8dddd	.
!	!	!	!	!LO:TX:b:i:t=poco sf	!
.	4f#~)	.	8AAAA^L	4gg#X~ 4ddd#X 4aaa	.
.	.	.	8CCC#XJ 8GGG#X 8DD	.	.
=67	=67	=67	=67	=67	=67
4En 4F#X 4B-X	(8e-XL	f	8EEEL 8BBB 8FF	16ddd#XLL 16aaa 16eeee	p
.	.	.	.	16dddn 16ggg#X 16dddd#X	.
.	8gJ	.	8AAAAJ	16aa 16ddd#X 16ggg#X	.
.	.	.	.	16gg#XJJ 16dddn 16gggn	.
[4En [4G [4c	8f#XL	.	8.CCC#XL 8.GGG#X 8.DD	16ccc#XLL 16eee 16aaa	.
.	.	.	.	16fffnJ 16bbb-X 16ddddn	.
.	[8a^J	.	.	(8ddd#X^J 8aaa 8eeee	.
.	.	.	[16EEEJk [16BBB [16FF	.	.
=68	=68	=68	=68	=68	=68
16EnKL] 16G] 16c]	16aKL]	.	8EEEL] 8BBB] 8FF]	8dddnL) 8ggg#X 8dddd#X	.
[8.EnJ [8.A#X [8.d-X	8e-X)	.	.	.	.
.	.	.	[8AAAA^J	16ccc#XL 16gggn 16ddddn	.
.	([16a^Jk	.	.	16dddJJ 16ggg#X 16dddd#X	.
4En] 4A#] 4d-]	16aKL]	.	16AAAALL]	(8aa^L 8ddd#X 8ggg#X	.
.	8e-X	.	16CCC#XJ 16GGG#X 16DD	.	.
.	.	.	8EEEJ 8BBB 8FF	16gg#XL) 16dddn 16gggn	.
.	16f#XJk	.	.	[16ccc#X~JJ [16eee [16aaa	.
=69	=69	=69	=69	=69	=69
[2D-X [2F#X [2B-X	8cL	.	8.AAAA^L	16ccc#XLL] 16eee] 16aaa]	.
.	.	.	.	16fffn 16bbb-X 16dddd	.
.	(8f#X~J	.	.	16ddd#X 16aaa 16eeee	.
.	.	.	[16CCC#XJk [16GGG#X [16DD	16ccc#XJJ 16gggn 16ddddn	.
.	8cL)	.	8.CCC#L] 8.GGG#] 8.DD]	8ddd#XL 8aaa 8eeee	.
.	(16e-X^L	.	.	[8ddd#XJ [8ggg#X [8dddd#X	.
.	[16cJJ	.	[16EEEJk [16BBB [16FF	.	.
=70	=70	=70	=70	=70	=70
*	*	*	*X8ba	*X8va	*
16D-KL] 16F#] 16B-]	16cKL])	.	4EE_ 4BB_ 4F_	8dd#XL] 8gg#] 8ddd#]	.
(8.D-X^J 8.En 8.An	(8.e-X^J	.	.	.	.
.	.	.	.	8dd~J 8gg 8ddd	.
[4BB-X~) [4E-X [4Gn	[4c~)	.	8.EEL] 8.BB] 8.F]	4g#X~ 4dd#X 4aa	.
.	.	.	[16CC#XJk [16GG#X [16D	.	.
=	=	=	=	=	=
*-	*-	*-	*-	*-	*-
!!!system-decoration: {(s1,s2)}{(s3,s4)}
!!!CDT: 1908/12/10-1992/04/27
!!!CBL: Avignon, France
!!!CDL: Paris, France
!!!CNT: French
!!!AGN: Instrumental; Keyboard
!!!MCN:
!!!MDT: 1943/05/10
!!!MGN:
!!!MLC: Paris, France
!!!MPD: 1943
!!!MPN: Loriod, Yvonne; Messiaen, Olivier
!!!ODT: 1943
!!!PDT: 1950
!!!excerpt-start-measure: 63
!!!excerpt-end-measure: 70
!!!excerpt-start-time: 4:12
!!!excerpt-end-time: 4:49
!!!EEV: 2020/01/25
!!!ONB: Converted from MusicXML on 2020/01/25
